X:360
T:The market girl
C:anon.
O:Ireland
R:Double jig
B:O'Neills's 1001
Z:Transcribed by Frank Nordberg http://www.musicaviva.com
m:Tn2 = (3n/o/n/ m/n/
M:6/8
L:1/8
K:G
DEF GB(G|A)GA (BG)E|D(EF) G2d|AEE GEE|DEF GB(d|A)GA TB2g|gfe dB(G|A)GE (GE)D:|
|:Bdd dBd|(e/f/g)(e d)BG|Bdd dcB|AGE GED|Bdd (d2f)|edB def|gfe dcB|AGE GED:|


